X:1
T:Title
%%score 1 { ( 2 4 ) | 3 }
L:1/8
Q:1/4=100
M:4/4
K:C
V:1 treble nm="Bright Piano"
V:2 bass nm="Bright Piano"
V:4 bass 
V:3 bass 
V:1
 [CE]2 [DF]2 [EG]2 [EG]2 | [FA]2 [EG]2 [EG]2 [CE]2 | [EG]2 [DF]2 [DF]2 [CE]2 | [CE]4 [B,D]2 z2 | %4
w: Louis\-Jules~Delaborde * * *||||
 [CE]2 [DF]2 [EG]2 [EG]2 | [FA]2 [EG]2 [EG]2 [Ec]2 | [DB]3 [DB] [CA]2 [CA]2 | [B,G]6 z2 | %8
w: ||||
 [DF]2 [CE]2 [B,D]2 [B,A]2 | [CG]2 [DF]2 [CE]2 [Ec]2 | [CA]2 [FB]2 [Dc]2 [Dd]2 | [Dc]4 [DB]4 | %12
w: ||||
 [EG]2 [DF]2 [Fd]2 [DF]2 | [DF]2 [CE]2 [Ec]2 [CE]2 | [CE]2 [B,D]2 [B,A]2 [B,G]2 | [B,F]4 [CE]2 z2 | %16
w: ||||
 [CE]2 [DF]2 [EG]4 | [Ec]4 [CA]2 [CF]2 | [CE]4 [B,D]4 | C6 z2 |] %20
w: ||||
V:2
 G,4 G,2 G,2 | C2 C2 C2 G,2 | B,2 G,2 G,2 G,2 | G,4 G,2 z2 | G,4 G,2 G,2 | C2 C2 C2 G,2 | %6
 G,3 G, ^F,2 F,2 | G,6 z2 | G,4 z4 | G,2 ^G,2 A,2 A,2 | A,2 G,2 ^F,2 A,2 | ^F,4 G,4 | B,4 G,4 | %13
 G,4 G,4 | G,4 F,2 E,2 | D,4 C,2 z2 | G,4 C4 | G,4 F,2 A,2 | G,4 F,4 | E,6 z2 |] %20
V:3
 C,4 C,2 C,2 | C,2 C,2 C,2 C,2 | G,,2 B,,2 C,2 C,2 | G,,4 G,,2 z2 | C,4 C,2 C,2 | C,2 C,2 C,2 C,2 | %6
 D,3 D, D,2 D,2 | G,,6 z2 | B,,2 z2 F,2 z2 | E,2 B,,2 A,,2 A,,2 | F,2 D,2 A,,2 ^F,2 | A,,4 G,,4 | %12
 G,4 B,,4 | C,4 C,4 | G,,4 G,,2 G,,2 | G,,4 z4 | C,4 C,4 | C,4 C,2 D,2 | z4 G,,4 | C,6 z2 |] %20
V:4
 x8 | x8 | x8 | x8 | x8 | x8 | x8 | x8 | z2 C,2 G,2 G,2 | x8 | x8 | x8 | x8 | x8 | x8 | x8 | x8 | %17
 x8 | x8 | x8 |] %20

